X:11
T:B011-  All you that love good fellows
S:via BBM, from 'Freishe Lust-Hor', 2nd ed, 1621
N:(2nd/2)
Q:1/4=120
L:1/4
M:C
K:C
c|\
cGcd|eedB|cG G/2F/2E/2D/2|C3G|\
cGcd|eedB|cG G/2F/2E/2D/2|C3 c|\
dedA|ddde|d3/2 c/2BA|GGa3/2f/2|\
eced|cGGG|(A/2B/2)ccB|cc2G|\
AGA3/2G/2|AGA3/2 G/2|F2E2|D3c|\
dedc|d3/2e/2d(g/2f/2)|e(d/2c/2) d3/2 c/2|c3|]

